X:23
T:Far Away from Home
T:Far from Home
T:Michael Coleman's
R:barndance
Z:id:hn-barndance-23
M:C|
L:1/8
K:G
GE | D2DE G2GA | B2BA Bcd2 | d2de dBAB | GEED E2GE |
D2DE G2GA | B2BA Bcd2 | d2ge dBAB | G2GF G2 :|
|: ga | b2bg a2af | gage d2Bc | d2ge dBAB | GEED E2ga |
babg abaf | gage d2Bc | d2ge dBAB | G2GF G2 :|

